dist/uploads/catalog-sidebar-icons/1/i-catalog-1.svg

<svg width="33" height="33" viewBox="0 0 33 33" fill="none" xmlns="http://www.w3.org/2000/svg">
<g clip-path="url(#clip0)">
<path d="M6.33256 28.875L4.125 30.3468V31.625C4.125 31.9897 4.26987 32.3394 4.52773 32.5973C4.78559 32.8551 5.13533 33 5.5 33H27.5C27.8647 33 28.2144 32.8551 28.4723 32.5973C28.7301 32.3394 28.875 31.9897 28.875 31.625V30.3468L26.6674 28.875H6.33256Z" fill="#FFC800"/>
<path d="M28.875 16.5H4.125C3.03137 16.5013 1.9829 16.9363 1.20959 17.7096C0.43628 18.4829 0.00127367 19.5314 0 20.625L0 28.875C0.00419137 29.1221 0.0743208 29.3637 0.203137 29.5747C0.331954 29.7856 0.514782 29.9584 0.732719 30.075C0.950656 30.1916 1.19579 30.2479 1.44278 30.2381C1.68977 30.2282 1.92965 30.1526 2.13761 30.019L5.91628 27.5H27.0837L30.8622 30.019C31.0702 30.1526 31.3101 30.2282 31.5571 30.2381C31.8041 30.2479 32.0492 30.1916 32.2672 30.075C32.4851 29.9583 32.6679 29.7856 32.7968 29.5747C32.9256 29.3637 32.9958 29.1222 33 28.875V20.625C32.9987 19.5314 32.5637 18.4829 31.7904 17.7096C31.0171 16.9363 29.9686 16.5013 28.875 16.5Z" fill="#FFC800"/>
<path d="M28.875 8.25C28.8738 7.15636 28.4388 6.10786 27.6655 5.33454C26.8921 4.56122 25.8436 4.12623 24.75 4.125H8.25C7.15636 4.12623 6.10786 4.56122 5.33454 5.33454C4.56122 6.10786 4.12623 7.15636 4.125 8.25V15.125H28.875V8.25ZM15.125 12.375C15.125 12.7397 14.9801 13.0894 14.7223 13.3473C14.4644 13.6051 14.1147 13.75 13.75 13.75H8.25C7.88533 13.75 7.53559 13.6051 7.27773 13.3473C7.01987 13.0894 6.875 12.7397 6.875 12.375V9.625C6.875 9.26033 7.01987 8.91059 7.27773 8.65273C7.53559 8.39487 7.88533 8.25 8.25 8.25H13.75C14.1147 8.25 14.4644 8.39487 14.7223 8.65273C14.9801 8.91059 15.125 9.26033 15.125 9.625V12.375ZM26.125 12.375C26.125 12.7397 25.9801 13.0894 25.7223 13.3473C25.4644 13.6051 25.1147 13.75 24.75 13.75H19.25C18.8853 13.75 18.5356 13.6051 18.2777 13.3473C18.0199 13.0894 17.875 12.7397 17.875 12.375V9.625C17.875 9.26033 18.0199 8.91059 18.2777 8.65273C18.5356 8.39487 18.8853 8.25 19.25 8.25H24.75C25.1147 8.25 25.4644 8.39487 25.7223 8.65273C25.9801 8.91059 26.125 9.26033 26.125 9.625V12.375Z" fill="#FFC800"/>
</g>
<defs>
<clipPath id="clip0">
<rect width="33" height="33" fill="white"/>
</clipPath>
</defs>
</svg>

<svg width="33" height="33" fill="none" xmlns="http://www.w3.org/2000/svg"><g clip-path="url(#clip0)" fill="#FFC800"><path d="M6.333 28.875l-2.208 1.472v1.278A1.375 1.375 0 0 0 5.5 33h22a1.375 1.375 0 0 0 1.375-1.375v-1.278l-2.208-1.472H6.333z"/><path d="M28.875 16.5H4.125A4.13 4.13 0 0 0 0 20.625v8.25a1.388 1.388 0 0 0 2.138 1.144L5.916 27.5h21.168l3.778 2.519A1.389 1.389 0 0 0 33 28.875v-8.25a4.13 4.13 0 0 0-4.125-4.125zm0-8.25a4.13 4.13 0 0 0-4.125-4.125H8.25A4.13 4.13 0 0 0 4.125 8.25v6.875h24.75V8.25zm-13.75 4.125a1.375 1.375 0 0 1-1.375 1.375h-5.5a1.375 1.375 0 0 1-1.375-1.375v-2.75A1.375 1.375 0 0 1 8.25 8.25h5.5a1.375 1.375 0 0 1 1.375 1.375v2.75zm11 0a1.375 1.375 0 0 1-1.375 1.375h-5.5a1.375 1.375 0 0 1-1.375-1.375v-2.75A1.375 1.375 0 0 1 19.25 8.25h5.5a1.375 1.375 0 0 1 1.375 1.375v2.75z"/></g><defs><clipPath id="clip0"><path fill="#fff" d="M0 0h33v33H0z"/></clipPath></defs></svg>
